icons/ppe-mask_fill.svg

<svg width="48" height="48" viewBox="0 0 48 48" fill="none" xmlns="http://www.w3.org/2000/svg">
<path fill-rule="evenodd" clip-rule="evenodd" d="M8.99976 16.8683C8.99976 12.6419 20.1602 12.6419 20.1602 12.6419L21.0608 11.0263C21.4139 10.3927 22.0824 10 22.8077 10H25.3667C26.092 10 26.7604 10.3926 27.1136 11.0261L28.0142 12.6415C28.0142 12.6415 38.9998 12.6419 38.9998 16.8683C38.9998 16.9239 38.9997 16.9794 38.9995 17.0348L40.7304 17.4548C42.6513 17.9209 43.9437 19.7203 43.772 21.6895L43.2149 28.0768C43.0797 29.6273 42.0574 30.9585 40.5944 31.4894L33.8409 33.94C33.6799 33.9984 33.5137 34.013 33.3554 33.9897C29.2774 38 24.4836 38 24.4836 38H23.5159C23.5159 38 18.6502 38 14.5529 33.8992L7.36111 31.1024C5.95199 30.5544 4.97226 29.2587 4.82891 27.7536L4.25552 21.7329C4.06417 19.7237 5.39957 17.8868 7.36978 17.4489L9.00028 17.0866C8.99994 17.0141 8.99976 16.9413 8.99976 16.8683ZM35.6096 31.1706C37.3447 28.4082 38.6632 24.5285 38.9442 19.0794L40.2587 19.3984C41.2192 19.6314 41.8654 20.5311 41.7796 21.5158L41.2225 27.9031C41.1549 28.6783 40.6437 29.3439 39.9122 29.6093L35.6096 31.1706ZM9.05762 19.1226L7.80364 19.4013C6.81854 19.6202 6.15083 20.5387 6.24651 21.5433L6.8199 27.564C6.89158 28.3165 7.38144 28.9644 8.086 29.2384L12.1824 30.8314C10.5548 28.1007 9.33176 24.3299 9.05762 19.1226ZM23.9998 18.4692L30.2423 20.0299C30.7781 20.1638 31.1039 20.7067 30.9699 21.2425C30.836 21.7783 30.293 22.1041 29.7572 21.9701L23.9998 20.5308L18.2423 21.9701C17.7065 22.1041 17.1636 21.7783 17.0296 21.2425C16.8957 20.7067 17.2214 20.1638 17.7572 20.0299L23.9998 18.4692Z" fill="black"/>
</svg>

<svg
  xmlns="http://www.w3.org/2000/svg"
  width="24"
  height="24"
  viewBox="0 0 24 24"
  fill="none"
  stroke="currentColor"
  stroke-width="2"
  stroke-linecap="round"
  stroke-linejoin="round"
>
  <path
    fill-rule="evenodd"
    d="M9 16.868c0-4.226 11.16-4.226 11.16-4.226l.9-1.616A2 2 0 0 1 22.809 10h2.559a2 2 0 0 1 1.747 1.026l.9 1.616S39 12.642 39 16.868v.167l1.73.42a4 4 0 0 1 3.042 4.235l-.557 6.387a4 4 0 0 1-2.62 3.412L33.84 33.94a1 1 0 0 1-.486.05C29.277 38 24.484 38 24.484 38h-.968s-4.866 0-8.963-4.1L7.36 31.101a4 4 0 0 1-2.532-3.348l-.573-6.021a4 4 0 0 1 3.114-4.284L9 17.087zm26.61 14.303c1.735-2.763 3.053-6.642 3.334-12.092l1.315.32a2 2 0 0 1 1.52 2.117l-.557 6.387a2 2 0 0 1-1.31 1.706zM9.058 19.123l-1.254.278a2 2 0 0 0-1.557 2.142l.573 6.021a2 2 0 0 0 1.266 1.674l4.096 1.593c-1.627-2.73-2.85-6.501-3.124-11.708M24 18.469l6.242 1.56a1 1 0 1 1-.485 1.941L24 20.53l-5.758 1.44a1 1 0 1 1-.485-1.94z"
    clip-rule="evenodd"
  />
</svg>
